src/actions/22/map-gnomonic.svg

<svg xmlns="http://www.w3.org/2000/svg" viewBox="0 0 22 22">
  <defs id="defs3051">
    <style type="text/css" id="current-color-scheme">
      .ColorScheme-Text {
        color:#2e3440;
      }
      </style>
  </defs>
 <path 
    style="fill:currentColor;fill-opacity:1;stroke:none" 
    d="M 3 3 L 3 6 L 3 16 L 3 19 L 19 19 L 19 16 L 19 6 L 19 3 L 3 3 z M 4 4 L 8 4 L 8 8.7070312 A 7 3.0000024 0 0 1 4 6 L 4 4 z M 9 4 L 13 4 L 13 8.8730469 A 7 3.0000024 0 0 1 11 9 A 7 3.0000024 0 0 1 9 8.8730469 L 9 4 z M 14 4 L 18 4 L 18 6 A 7 3.0000024 0 0 1 14 8.7070312 L 14 4 z M 4 7.9277344 A 7.9999909 3.9999955 0 0 0 8 9.7050781 L 8 12.294922 A 7.9999909 3.9999955 0 0 0 4 14.072266 L 4 7.9277344 z M 18 7.9355469 L 18 14.064453 A 7.9999909 3.9999955 0 0 0 14 12.294922 L 14 9.7050781 A 7.9999909 3.9999955 0 0 0 18 7.9355469 z M 9 9.8671875 A 7.9999909 3.9999955 0 0 0 11 10 A 7.9999909 3.9999955 0 0 0 13 9.8691406 L 13 12.130859 A 7.9999909 3.9999955 0 0 0 11 12 A 7.9999909 3.9999955 0 0 0 9 12.132812 L 9 9.8671875 z M 11 13 A 7 3.0000024 0 0 1 13 13.126953 L 13 18 L 9 18 L 9 13.126953 A 7 3.0000024 0 0 1 11 13 z M 8 13.292969 L 8 18 L 4 18 L 4 16 A 7 3.0000024 0 0 1 8 13.292969 z M 14 13.292969 A 7 3.0000024 0 0 1 18 16 L 18 18 L 14 18 L 14 13.292969 z "
    class="ColorScheme-Text"
    />  
</svg>

<svg viewBox="0 0 22 22" xmlns="http://www.w3.org/2000/svg">
 <defs>
  <style type="text/css">.ColorScheme-Text {
        color:#2e3440;
      }</style>
 </defs>
 <path class="ColorScheme-Text" d="m3 3v3 10 3h16v-3-10-3h-16zm1 1h4v4.707a7 3 0 0 1-4-2.707v-2zm5 0h4v4.873a7 3 0 0 1-2 0.12695 7 3 0 0 1-2-0.12695v-4.873zm5 0h4v2a7 3 0 0 1-4 2.707v-4.707zm-10 3.9277a8 4 0 0 0 4 1.7773v2.5898a8 4 0 0 0-4 1.7773v-6.1445zm14 0.0078125v6.1289a8 4 0 0 0-4-1.7695v-2.5898a8 4 0 0 0 4-1.7695zm-9 1.9316a8 4 0 0 0 2 0.13281 8 4 0 0 0 2-0.13086v2.2617a8 4 0 0 0-2-0.13086 8 4 0 0 0-2 0.13281v-2.2656zm2 3.1328a7 3 0 0 1 2 0.12695v4.873h-4v-4.873a7 3 0 0 1 2-0.12695zm-3 0.29297v4.707h-4v-2a7 3 0 0 1 4-2.707zm6 0a7 3 0 0 1 4 2.707v2h-4v-4.707z" fill="currentColor"/>
</svg>
